X:1
T:Title
%%score { ( 1 3 4 ) | ( 2 5 ) }
L:1/8
M:4/4
K:Ab
V:1 treble nm="Grand Piano"
V:3 treble 
V:4 treble 
V:2 bass 
V:5 bass 
V:1
 z4 z2[Q:1/4=100] [CE]2 | [Ec]2 [Ec]2 [Ec][CA][DG][EA] | [FB]4 F2 F2 | d2 d2 dBAB | [Ec]6 [CE]2 | %5
 [Ec]2 [Ec]2 [Ec][CA][DG][EA] |[M:3/4] [FB]4 [DF]2 |[M:1/4] [EF]2 | %8
[M:4/4] [=DB]2 [DB]2 [DB][DB][Dc][DB] | B6 E2 | d2 d2 ddcB | [Ec]4 [CEA]2 [Ec]2 | %12
 [=DB]2 [DB]2 [DA]FGA | B6 z2 | [Ee]2 [Ee]2 [Ee][Ec][EB][EA] | [Fd]4 F2 =E2 | EFGA c2 B2 | %17
[M:3/4] [CA]6 |[M:1/4] cc |[M:4/4] [ce]2 [Ac]2 [Gd]2 [Bd]2 | [Ac]2 z2 C2 cc | %21
 [Fd]2 [Gd]2 [Ad]2 [Fd]2 | [Ec]6 z2 | [Fd]2 [Bd]2 [Ad]2 [Fd]2 | z2 [ce]4 z2 | [B=d]4 z4 | %26
 [Bd]6 z2 | [ce]2 [Ac]2 [Gd]2 [Bd]2 | [Ac]2 z2 C2 cc | [Fd]2 [df]2 z2 z =e | [ce]6 z2 | %31
 [Fd]2 [Bg]2 [Af]2 [Fd]2 | z2 [ce]4 z2 | z [ce]3 [Ed]4 |[M:7/8] [Ac]-[Ac]-[Ac]- [Ac]3 z |] %35
V:2
 z4 z2 [A,,A,]2 | [A,,A,]2 [A,,A,]2 [A,,A,][A,,E,][B,,E,][C,A,] | [D,A,]4 [D,A,D]2 [D,A,D]2 | %3
 [E,G,D]2 [F,A,D]2 [G,B,D][E,G,D][F,A,C][E,G,D] | [A,,A,]6 [A,,A,]2 | %5
 [A,,A,]2 [A,,A,]2 [A,,A,][A,,E,][B,,E,][C,A,] |[M:3/4] [D,A,]4 [D,A,]2 |[M:1/4] [C,=A,]2 | %8
[M:4/4] [B,,B,]2 [B,,A,]2 [B,,F,][B,,F,][B,,A,][B,,A,] | [E,G,E]6 [E,G,]2 | %10
 [E,G,E]2 [F,A,E]2 [G,B,E][E,G,E][E,A,E][E,G,E] | [A,,A,]4 A,,2 [A,,A,]2 | %12
 [B,,A,]2 [B,,F,]2 [B,,B,][A,B,=D][G,B,D][F,B,D] | [E,G,D]2 [F,A,]2 [E,G,]2 [E,G,]2 | %14
 [C,A,]2 [B,,G,]2 [C,A,][A,,A,][B,,G,][C,A,] | [D,A,]4 [D,A,D]2 [=D,A,_C]2 | %16
 [E,A,C][E,A,C][E,B,D][E,A,C] [E,A,E]2 [E,G,D]2 |[M:3/4] [A,,E,A,]6 |[M:1/4] EE | %19
[M:4/4] A,,2 [E,A,C]2 E,,2 [E,G,D]2 | A,,2 [E,A,C]2 [E,A,]2[K:treble] AG | %21
 D,2 [F,A,D]2 D,2 [F,A,D]2 | A,,2 E,2 E,2 EE | D,2 [F,A,D]2 D,2 [F,A,D]2 | %24
 A,,2 [E,A,C]2 [E,A,]2[K:treble] cc | B,,2 z F B,,2 [A,B,=D]2 | E,,2 G,2 G,2 EE | %27
 A,,2 [F,A,C]2 E,,2 [E,G,D]2 | A,,2 [E,A,C]2 [E,A,]2[K:treble] AG | %29
 D,2 [F,A,D]2 D,2 z[K:treble] B | A,,2 E,2 E,2 EE | D,2 [F,A,D]2 D,2 [F,A,D]2 | %32
 A,,2 [E,A,C]2 [E,A,]2[K:treble] cd | z4 z2 [E,G,]2[K:treble] | %34
[M:7/8][K:bass] [A,,A,]2 E,,2 A,,2 z |] %35
V:3
 x8 | x8 | x8 | x8 | x8 | x8 |[M:3/4] x6 |[M:1/4] x2 |[M:4/4] x8 | x8 | x8 | x8 | x8 | %13
 z2 =D2 E2 E2 | x8 | x8 | x8 |[M:3/4] x6 |[M:1/4] x2 |[M:4/4] x8 | z2 [Ec]4 z2 | x8 | %22
 z2 [A,C]2 [A,C]2 cc | x8 | [Ec]2 z2 C2 ee | z2 z =d [Gd]2 [Ad]2 | z2 [B,E]2 [B,E]2 ee | x8 | %28
 z2 [Ec]4 z2 | z4 [Af]4 | z2 [A,C]2 [A,C]2 cc | x8 | [Ec]2 z2 C2 ef | .[ce]2 [A,C]2 z2 z d | %34
[M:7/8] z2 E,2 A,2 z |] %35
V:4
 x8 | x8 | x8 | x8 | x8 | x8 |[M:3/4] x6 |[M:1/4] x2 |[M:4/4] x8 | x8 | x8 | x8 | x8 | x8 | x8 | %15
 x8 | x8 |[M:3/4] x6 |[M:1/4] x2 |[M:4/4] x8 | x8 | x8 | x8 | x8 | x8 | z2 [B,=D]2 z4 | x8 | x8 | %28
 x8 | z4 z2 [A,D]2 | x8 | x8 | x8 | z4 z2 D2 |[M:7/8] x7 |] %35
V:5
 x8 | x8 | x8 | x8 | x8 | x8 |[M:3/4] x6 |[M:1/4] x2 |[M:4/4] x8 | x8 | x8 | x8 | x8 | x8 | x8 | %15
 x8 | x8 |[M:3/4] x6 |[M:1/4] x2 |[M:4/4] x8 | x6[K:treble] x2 | x8 | x8 | x8 | x6[K:treble] x2 | %25
 z2 A,2 z4 | x8 | x8 | x6[K:treble] x2 | z4 z2 F,2[K:treble] | x8 | x8 | x6[K:treble] x2 | %33
 [E,,E,]2 E,2 [E,,E,]2 z[K:treble] B |[M:7/8][K:bass] x7 |] %35

